packages/ui/src/components/icon-v2/icons/info-circle-solid.svg

<svg viewBox="0 0 16 16" fill="none" xmlns="http://www.w3.org/2000/svg">
<path fill-rule="evenodd" clip-rule="evenodd" d="M8 2C11.3137 2 14 4.68629 14 8C14 11.3137 11.3137 14 8 14C4.68629 14 2 11.3137 2 8C2 4.68629 4.68629 2 8 2ZM8 7.19922C7.7242 7.19933 7.5004 7.42348 7.5 7.69922V10.6992C7.5 10.9753 7.72395 11.1991 8 11.1992C8.27605 11.1991 8.5 10.9753 8.5 10.6992V7.69922C8.4996 7.42348 8.27581 7.19932 8 7.19922ZM8.34082 4.92676C8.13581 4.74251 7.81951 4.7594 7.63477 4.96387L7.62793 4.9707C7.44345 5.17572 7.46046 5.49195 7.66504 5.67676C7.84468 5.83844 8.10979 5.84627 8.29688 5.70801L8.37207 5.63965L8.37793 5.63379C8.56241 5.42853 8.54598 5.11141 8.34082 4.92676Z" fill="currentColor"/>
</svg>

<svg xmlns="http://www.w3.org/2000/svg" fill="none" viewBox="0 0 16 16"><path fill="currentColor" fill-rule="evenodd" d="M8 2a6 6 0 1 1 0 12A6 6 0 0 1 8 2m0 5.2a.5.5 0 0 0-.5.5v3a.5.5 0 0 0 1 0v-3a.5.5 0 0 0-.5-.5m.34-2.273a.5.5 0 0 0-.705.037l-.007.007a.5.5 0 0 0 .669.737l.075-.068.006-.006a.5.5 0 0 0-.037-.707" clip-rule="evenodd"/></svg>
